svgs/thin/loader.svg

<svg xmlns="http://www.w3.org/2000/svg" viewBox="0 0 512 512"><!--! Font Awesome Pro 6.0.0-alpha3 by @fontawesome - https://fontawesome.com License - https://fontawesome.com/license (Commercial License) --><path d="M256 0C251.6 0 248 3.578 248 8v112C248 124.4 251.6 128 256 128s8-3.578 8-8v-112C264 3.578 260.4 0 256 0zM256 384c-4.406 0-8 3.578-8 8v112C248 508.4 251.6 512 256 512s8-3.578 8-8v-112C264 387.6 260.4 384 256 384zM504 248h-112C387.6 248 384 251.6 384 256s3.594 8 8 8h112C508.4 264 512 260.4 512 256S508.4 248 504 248zM128 256c0-4.422-3.594-8-8-8h-112C3.594 248 0 251.6 0 256s3.594 8 8 8h112C124.4 264 128 260.4 128 256zM352.2 167.8c2.031 0 4.094-.7813 5.656-2.344l79.22-79.19c3.125-3.125 3.125-8.188 0-11.31c-3.125-3.094-8.188-3.156-11.31 0L346.5 154.2c-3.125 3.125-3.125 8.188 0 11.31C348.1 167 350.1 167.8 352.2 167.8zM154.2 346.5l-79.22 79.19c-3.125 3.125-3.125 8.188 0 11.31c1.562 1.562 3.594 2.344 5.656 2.344c2.031 0 4.094-.7813 5.656-2.344l79.22-79.19c3.125-3.125 3.125-8.188 0-11.31C162.4 343.4 157.3 343.4 154.2 346.5zM357.8 346.5c-3.125-3.125-8.188-3.125-11.31 0s-3.125 8.188 0 11.31l79.22 79.19c1.562 1.562 3.625 2.344 5.656 2.344c2.062 0 4.094-.7813 5.656-2.344c3.125-3.125 3.125-8.188 0-11.31L357.8 346.5zM86.28 74.98c-3.156-3.156-8.219-3.094-11.31 0c-3.125 3.125-3.125 8.188 0 11.31l79.22 79.19c1.562 1.562 3.594 2.344 5.656 2.344S163.9 167 165.5 165.5c3.125-3.125 3.125-8.188 0-11.31L86.28 74.98z"/></svg>

<svg xmlns="http://www.w3.org/2000/svg" viewBox="0 0 512 512"><!-- Font Awesome Pro 6.0.0-alpha2 by @fontawesome - https://fontawesome.com License - https://fontawesome.com/license (Commercial License) --><path d="M256 0C251.594 0 248 3.578 248 8V120C248 124.422 251.594 128 256 128S264 124.422 264 120V8C264 3.578 260.406 0 256 0ZM256 384C251.594 384 248 387.578 248 392V504C248 508.422 251.594 512 256 512S264 508.422 264 504V392C264 387.578 260.406 384 256 384ZM504 248H392C387.594 248 384 251.578 384 256S387.594 264 392 264H504C508.406 264 512 260.422 512 256S508.406 248 504 248ZM128 256C128 251.578 124.406 248 120 248H8C3.594 248 0 251.578 0 256S3.594 264 8 264H120C124.406 264 128 260.422 128 256ZM352.156 167.828C354.188 167.828 356.25 167.047 357.812 165.484L437.031 86.297C440.156 83.172 440.156 78.109 437.031 74.984C433.906 71.891 428.844 71.828 425.719 74.984L346.5 154.172C343.375 157.297 343.375 162.359 346.5 165.484C348.062 167.047 350.094 167.828 352.156 167.828ZM154.188 346.516L74.969 425.703C71.844 428.828 71.844 433.891 74.969 437.016C76.531 438.578 78.563 439.359 80.625 439.359C82.656 439.359 84.719 438.578 86.281 437.016L165.5 357.828C168.625 354.703 168.625 349.641 165.5 346.516C162.406 343.406 157.344 343.375 154.188 346.516ZM357.812 346.516C354.688 343.391 349.625 343.391 346.5 346.516S343.375 354.703 346.5 357.828L425.719 437.016C427.281 438.578 429.344 439.359 431.375 439.359C433.437 439.359 435.469 438.578 437.031 437.016C440.156 433.891 440.156 428.828 437.031 425.703L357.812 346.516ZM86.281 74.984C83.125 71.828 78.063 71.891 74.969 74.984C71.844 78.109 71.844 83.172 74.969 86.297L154.188 165.484C155.75 167.047 157.781 167.828 159.844 167.828S163.938 167.047 165.5 165.484C168.625 162.359 168.625 157.297 165.5 154.172L86.281 74.984Z"/></svg>
